contributed-vectors/_3c_app_manager.svg

<?xml version="1.0" encoding="UTF-8" standalone="no"?>
<svg
   xmlns:dc="http://purl.org/dc/elements/1.1/"
   xmlns:cc="http://creativecommons.org/ns#"
   xmlns:rdf="http://www.w3.org/1999/02/22-rdf-syntax-ns#"
   xmlns:svg="http://www.w3.org/2000/svg"
   xmlns="http://www.w3.org/2000/svg"
   xmlns:sodipodi="http://sodipodi.sourceforge.net/DTD/sodipodi-0.dtd"
   xmlns:inkscape="http://www.inkscape.org/namespaces/inkscape"
   viewBox="0 0 192 192"
   version="1.1"
   id="svg16"
   sodipodi:docname="_3c_app_manager.svg"
   inkscape:version="0.92.4 (5da689c313, 2019-01-14)">
  <metadata
     id="metadata20">
    <rdf:RDF>
      <cc:Work
         rdf:about="">
        <dc:format>image/svg+xml</dc:format>
        <dc:type
           rdf:resource="http://purl.org/dc/dcmitype/StillImage" />
        <dc:title></dc:title>
      </cc:Work>
    </rdf:RDF>
  </metadata>
  <sodipodi:namedview
     pagecolor="#ffffff"
     bordercolor="#666666"
     borderopacity="1"
     objecttolerance="10"
     gridtolerance="10"
     guidetolerance="10"
     inkscape:pageopacity="0"
     inkscape:pageshadow="2"
     inkscape:window-width="1920"
     inkscape:window-height="1017"
     id="namedview18"
     showgrid="true"
     inkscape:zoom="4.9166667"
     inkscape:cx="154.35861"
     inkscape:cy="91.673782"
     inkscape:window-x="-8"
     inkscape:window-y="-8"
     inkscape:window-maximized="1"
     inkscape:current-layer="svg16"
     inkscape:snap-global="true">
    <inkscape:grid
       type="xygrid"
       id="grid827"
       spacingx="4"
       spacingy="4" />
  </sodipodi:namedview>
  <defs
     id="defs4">
    <style
       id="style2">.a{fill:none;stroke:#b1b5bd;stroke-linecap:round;stroke-linejoin:round;isolation:isolate;opacity:0.63;}</style>
  </defs>
  <path
     id="path847"
     style="font-style:normal;font-variant:normal;font-weight:500;font-stretch:normal;font-size:168.37748718px;line-height:1.25;font-family:Now;-inkscape-font-specification:'Now Medium';letter-spacing:0px;word-spacing:0px;fill:#ffffff;fill-opacity:1;stroke:none;stroke-width:4.20943689"
     d="M 47.956653,83.520276 88.36725,32.165142 H 7.967 V 50.897138 H 52.166091 L 14.491628,99.937081 h 0.631415 33.465026 c 11.575952,0 20.626242,7.787459 20.626242,19.573879 0,11.9969 -8.839818,21.25766 -20.836714,21.25766 -10.734065,0 -19.994826,-7.57699 -19.994826,-17.46916 L 7.967,123.50993 c 0,20.41577 18.10058,36.6221 40.200125,36.6221 23.362377,0 41.042013,-17.89011 41.042013,-39.77918 0,-23.151904 -18.311052,-37.674462 -41.252485,-36.832574 z"
     inkscape:connector-curvature="0" />
  <rect
     style="opacity:1;vector-effect:none;fill:#9abeff;fill-opacity:1;fill-rule:evenodd;stroke:none;stroke-width:8;stroke-linecap:round;stroke-linejoin:round;stroke-miterlimit:4;stroke-dasharray:none;paint-order:stroke fill markers"
     id="rect862"
     width="96"
     height="96"
     x="80"
     y="48"
     ry="46" />
  <path
     id="path849"
     style="font-style:normal;font-variant:normal;font-weight:500;font-stretch:normal;font-size:168.37748718px;line-height:1.25;font-family:Now;-inkscape-font-specification:'Now Medium';letter-spacing:0px;word-spacing:0px;fill:#ffffff;fill-opacity:1;stroke:none;stroke-width:4.14294291"
     d="m 128,159.48398 c 24.23622,0 45.15808,-13.46456 55.92973,-33.35069 l -17.40035,-9.32162 c -7.25016,13.67171 -21.75046,22.57904 -38.52938,22.57904 -24.44336,0 -43.708048,-19.05754 -43.708048,-43.708049 0,-24.650511 19.264688,-43.708049 43.708048,-43.708049 16.77892,0 31.27922,8.907326 38.52938,22.579039 l 17.40035,-9.321622 C 173.15808,45.345902 152.23622,31.881337 128,31.881337 c -35.21502,0 -63.801321,28.586308 -63.801321,63.801324 0,35.215019 28.586301,63.801319 63.801321,63.801319 z"
     inkscape:connector-curvature="0" />
  <rect
     style="opacity:1;vector-effect:none;fill:#ffffff;fill-opacity:1;fill-rule:evenodd;stroke:none;stroke-width:8;stroke-linecap:round;stroke-linejoin:round;stroke-miterlimit:4;stroke-dasharray:none;paint-order:stroke fill markers"
     id="rect818"
     width="56"
     height="56"
     x="100"
     y="68"
     ry="28" />
  <rect
     style="opacity:1;vector-effect:none;fill:#9abeff;fill-opacity:1;fill-rule:evenodd;stroke:none;stroke-width:8;stroke-linecap:round;stroke-linejoin:round;stroke-miterlimit:4;stroke-dasharray:none;paint-order:stroke fill markers"
     id="rect820"
     width="8"
     height="8"
     x="112"
     y="86"
     ry="4" />
  <rect
     style="opacity:1;vector-effect:none;fill:#9abeff;fill-opacity:1;fill-rule:evenodd;stroke:none;stroke-width:8;stroke-linecap:round;stroke-linejoin:round;stroke-miterlimit:4;stroke-dasharray:none;paint-order:stroke fill markers"
     id="rect822"
     width="8"
     height="8"
     x="124"
     y="86"
     ry="4" />
  <rect
     style="opacity:1;vector-effect:none;fill:#9abeff;fill-opacity:1;fill-rule:evenodd;stroke:none;stroke-width:8;stroke-linecap:round;stroke-linejoin:round;stroke-miterlimit:4;stroke-dasharray:none;paint-order:stroke fill markers"
     id="rect824"
     width="8"
     height="8"
     x="136"
     y="86"
     ry="4" />
  <rect
     style="opacity:1;vector-effect:none;fill:#9abeff;fill-opacity:1;fill-rule:evenodd;stroke:none;stroke-width:8;stroke-linecap:round;stroke-linejoin:round;stroke-miterlimit:4;stroke-dasharray:none;paint-order:stroke fill markers"
     id="rect826"
     width="8"
     height="8"
     x="112"
     y="98"
     ry="4" />
  <rect
     style="opacity:1;vector-effect:none;fill:#9abeff;fill-opacity:1;fill-rule:evenodd;stroke:none;stroke-width:8;stroke-linecap:round;stroke-linejoin:round;stroke-miterlimit:4;stroke-dasharray:none;paint-order:stroke fill markers"
     id="rect828"
     width="8"
     height="8"
     x="124"
     y="98"
     ry="4" />
  <rect
     style="opacity:1;vector-effect:none;fill:#9abeff;fill-opacity:1;fill-rule:evenodd;stroke:none;stroke-width:8;stroke-linecap:round;stroke-linejoin:round;stroke-miterlimit:4;stroke-dasharray:none;paint-order:stroke fill markers"
     id="rect830"
     width="8"
     height="8"
     x="136"
     y="98"
     ry="4" />
</svg>

<svg xmlns="http://www.w3.org/2000/svg" id="svg16" version="1.1" viewBox="0 0 192 192"><defs id="defs4"><style id="style2">.a{fill:none;stroke:#b1b5bd;stroke-linecap:round;stroke-linejoin:round;isolation:isolate;opacity:.63}</style></defs><path id="path847" d="m47.957 83.52 40.41-51.355h-80.4v18.732h44.2l-37.675 49.04H48.588c11.576 0 20.626 7.788 20.626 19.574 0 11.997-8.84 21.258-20.836 21.258-10.734 0-19.995-7.577-19.995-17.47l-20.416.21c0 20.417 18.1 36.623 40.2 36.623 23.363 0 41.042-17.89 41.042-39.78 0-23.151-18.31-37.674-41.252-36.832z" style="font-style:normal;font-variant:normal;font-weight:500;font-stretch:normal;font-size:168.37748718px;line-height:1.25;font-family:Now;-inkscape-font-specification:&quot;Now Medium&quot;;letter-spacing:0;word-spacing:0;fill:#fff;fill-opacity:1;stroke:none;stroke-width:4.20943689"/><rect id="rect862" width="96" height="96" x="80" y="48" ry="46" style="opacity:1;vector-effect:none;fill:#9abeff;fill-opacity:1;fill-rule:evenodd;stroke:none;stroke-width:8;stroke-linecap:round;stroke-linejoin:round;stroke-miterlimit:4;stroke-dasharray:none;paint-order:stroke fill markers"/><path id="path849" d="M128 159.484c24.236 0 45.158-13.465 55.93-33.35l-17.4-9.322c-7.25 13.671-21.751 22.579-38.53 22.579-24.443 0-43.708-19.058-43.708-43.708S103.557 51.975 128 51.975c16.779 0 31.28 8.907 38.53 22.579l17.4-9.322c-10.772-19.886-31.694-33.35-55.93-33.35-35.215 0-63.801 28.586-63.801 63.8 0 35.216 28.586 63.802 63.801 63.802z" style="font-style:normal;font-variant:normal;font-weight:500;font-stretch:normal;font-size:168.37748718px;line-height:1.25;font-family:Now;-inkscape-font-specification:&quot;Now Medium&quot;;letter-spacing:0;word-spacing:0;fill:#fff;fill-opacity:1;stroke:none;stroke-width:4.14294291"/><rect id="rect818" width="56" height="56" x="100" y="68" ry="28" style="opacity:1;vector-effect:none;fill:#fff;fill-opacity:1;fill-rule:evenodd;stroke:none;stroke-width:8;stroke-linecap:round;stroke-linejoin:round;stroke-miterlimit:4;stroke-dasharray:none;paint-order:stroke fill markers"/><rect id="rect820" width="8" height="8" x="112" y="86" ry="4" style="opacity:1;vector-effect:none;fill:#9abeff;fill-opacity:1;fill-rule:evenodd;stroke:none;stroke-width:8;stroke-linecap:round;stroke-linejoin:round;stroke-miterlimit:4;stroke-dasharray:none;paint-order:stroke fill markers"/><rect id="rect822" width="8" height="8" x="124" y="86" ry="4" style="opacity:1;vector-effect:none;fill:#9abeff;fill-opacity:1;fill-rule:evenodd;stroke:none;stroke-width:8;stroke-linecap:round;stroke-linejoin:round;stroke-miterlimit:4;stroke-dasharray:none;paint-order:stroke fill markers"/><rect id="rect824" width="8" height="8" x="136" y="86" ry="4" style="opacity:1;vector-effect:none;fill:#9abeff;fill-opacity:1;fill-rule:evenodd;stroke:none;stroke-width:8;stroke-linecap:round;stroke-linejoin:round;stroke-miterlimit:4;stroke-dasharray:none;paint-order:stroke fill markers"/><rect id="rect826" width="8" height="8" x="112" y="98" ry="4" style="opacity:1;vector-effect:none;fill:#9abeff;fill-opacity:1;fill-rule:evenodd;stroke:none;stroke-width:8;stroke-linecap:round;stroke-linejoin:round;stroke-miterlimit:4;stroke-dasharray:none;paint-order:stroke fill markers"/><rect id="rect828" width="8" height="8" x="124" y="98" ry="4" style="opacity:1;vector-effect:none;fill:#9abeff;fill-opacity:1;fill-rule:evenodd;stroke:none;stroke-width:8;stroke-linecap:round;stroke-linejoin:round;stroke-miterlimit:4;stroke-dasharray:none;paint-order:stroke fill markers"/><rect id="rect830" width="8" height="8" x="136" y="98" ry="4" style="opacity:1;vector-effect:none;fill:#9abeff;fill-opacity:1;fill-rule:evenodd;stroke:none;stroke-width:8;stroke-linecap:round;stroke-linejoin:round;stroke-miterlimit:4;stroke-dasharray:none;paint-order:stroke fill markers"/></svg>
